X:172
T:No, Not One!
%%stretchlast false
M:4/4
L:1/8
K:Eb clef=C1
"^I"[E,B,EG]2 [E,B,EG]3/2 "^i"[E,A,EF]/ "^I"[E,G,E]2 "^I¹"[G,,E,B,E]3/2 "^Imaj7¹"[G,,E,B,D]/ | "^IV"[A,,E,A,C]2 "^IV¹"[C,E,A,E]2 "^IV²"[E,A,C] "^I"[E,G,B,] "^i"[E,E]2 | "^I"[E,B,EG]2 "^iii¹"[B,,B,DG]2 "^i"[E,B,EF]2 "^V"[B,,D]2 | "^I"[E,B,EG]2 "^i"[E,A,EF]2 "^I"[E,G,E]3/2 [E,G,E]/ "^i"[E,E]2 | "^iii"[G,,B,G]3/2 [G,,B,G]/ "^♯iii"[A,,A,B,G]3/2 [A,,A,F]/ "^IVmaj7¹"[C,G,A,E]2 "^i"[E,A,E] "^I"[E,G,E]/ "^I7"[E,G,D]/ | "^vi¹"[E,CE]2 "^i"[E,E]2 "^vi"[B,,E,CD] "^i7²"[B,,E,B,D] "^V"[B,,D]2 | "^iii¹"[B,,B,DG]2 "^I"[E,B,EG]2 [E,B,EF]2 "^i"[E,E]2 | "^I"[E,B,EG]2 "^i"[E,A,EF]3/2 [E,A,EF]/ "^I"[E,G,E]2 "^i"[E,E]2 | "^iii¹"[B,,B,DG] "^I"[E,B,EG] [E,G,EB]2 [E,G,EB]2 "^IV²"[E,A,Ec]3/2 "^I"[E,G,EB]/ | [E,B,EG]3/2 [E,B,EG]/ [E,B,EG]2 "^i"[E,A,EF] "^I"[E,G,E] "^V"[B,,D]2 | "^iii¹"[B,,B,DG]2 "^I"[E,G,EB]2 [E,G,EB]3/2 [E,G,EB]/ "^IV²"[E,A,Ec]3/2 "^I"[E,G,EB]/ | "^iii"[G,,B,G]3/2 [G,,B,G]/ "^♯iii"[A,,A,B,G]2 "^ii²"[C,A,B,F]2 [E,A,B,F] "^I"[E,G,B,F] | [E,B,EG]2 [E,B,EG]3/2 "^i"[E,A,EF]/ "^Imaj7²"[B,,G,DE]2 "^i7²"[B,,E,DE]3/2 [B,,E,D]/ | [B,,E,CD]2 "^i"[E,E]2 "^vi¹"[E,C] "^i"[E,B,]3 | "^iii¹"[B,G]2 [B,G]2 "^v"[B,F]4 | "^iii¹"[B,G]2 "^♯iii"[A,F]2 "^I¹"[G,E]2 |]
